web/images/icon-users.svg

<svg height="512" viewBox="0 0 512 512" width="512" xmlns="http://www.w3.org/2000/svg"><path d="m437.02 330.98c-27.883-27.882-61.071-48.523-97.281-61.018 38.782-26.711 64.261-71.414 64.261-121.962 0-81.607-66.393-148-148-148s-148 66.393-148 148c0 50.548 25.479 95.251 64.262 121.962-36.21 12.495-69.398 33.136-97.281 61.018-48.352 48.353-74.981 112.64-74.981 181.02h40c0-119.103 96.897-216 216-216s216 96.897 216 216h40c0-68.38-26.629-132.667-74.98-181.02zm-181.02-74.98c-59.551 0-108-48.448-108-108s48.449-108 108-108 108 48.448 108 108-48.449 108-108 108z" fill="#fff"/></svg>

<?xml version="1.0" encoding="UTF-8"?>
<svg width="512px" height="512px" viewBox="0 0 512 512" version="1.1" xmlns="http://www.w3.org/2000/svg" xmlns:xlink="http://www.w3.org/1999/xlink">
    <!-- Generator: Sketch 51.3 (57544) - http://www.bohemiancoding.com/sketch -->
    <title>user</title>
    <desc>Created with Sketch.</desc>
    <defs></defs>
    <g id="Page-1" stroke="none" stroke-width="1" fill="none" fill-rule="evenodd">
        <g id="user" fill="#FFFFFF" fill-rule="nonzero">
            <path d="M437.02,330.98 C409.137,303.098 375.949,282.457 339.739,269.962 C378.521,243.251 404,198.548 404,148 C404,66.393 337.607,0 256,0 C174.393,0 108,66.393 108,148 C108,198.548 133.479,243.251 172.262,269.962 C136.052,282.457 102.864,303.098 74.981,330.98 C26.629,379.333 0,443.62 0,512 L40,512 C40,392.897 136.897,296 256,296 C375.103,296 472,392.897 472,512 L512,512 C512,443.62 485.371,379.333 437.02,330.98 Z M256,256 C196.449,256 148,207.552 148,148 C148,88.448 196.449,40 256,40 C315.551,40 364,88.448 364,148 C364,207.552 315.551,256 256,256 Z" id="Shape"></path>
        </g>
    </g>
</svg>
